www/assets/icons/text_rotation_angleup.svg

<svg width="24" height="24" viewBox="0 0 24 24" xmlns="http://www.w3.org/2000/svg" fill='currentColor'><path d="M4.49005 3.60498L3.43005 4.66498L7.85005 15.795L9.33005 14.315L8.41005 12.125L11.9501 8.58498L14.1401 9.50498L15.6201 8.02498L4.49005 3.60498ZM7.58005 10.405L5.36005 5.53498L10.2301 7.76498L7.58005 10.405ZM20.5701 8.72498H16.3301L17.7401 10.135L8.90005 18.975L10.3201 20.395L19.1601 11.555L20.5701 12.965V8.72498Z"/></svg>

<svg xmlns="http://www.w3.org/2000/svg" width="24" height="24" viewBox="0 0 24 24" fill='currentColor'><path d="m4.49 3.605-1.06 1.06 4.42 11.13 1.48-1.48-.92-2.19 3.54-3.54 2.19.92 1.48-1.48zm3.09 6.8-2.22-4.87 4.87 2.23zm12.99-1.68h-4.24l1.41 1.41-8.84 8.84 1.42 1.42 8.84-8.84 1.41 1.41z"/></svg>
